X: 2102
T: Father O'Flynn
B: nick
B: steve tunes
M:6/8
Q: 3/8=100
K:Dmajor
V:1 
A|dAF DFA|ded cBA|dcd ede|fdf ecA|dAF DFA|
 ded cBA|dcd ede|fdd d3|(fg)f fga|ecA A3|dcd Bed|
 cAA A3|BGB Bcd|AFD DFA|dcd ede|fdd d2||
% abcbook-tune_id 634560f2f20ee59d15a0f536
% abcbook-link-0 https://www.youtube.com/watch?v=AQW2lPG0UVc
% abcbook-link-title-0 Father Oflynn

% abcbook-boost 0
% abcbook-tablature 
% abcbook-transpose 
% abcbook-lastupdated 1667896235371
% abcbook-soundfonts 
% abcbook-repeats 3


